X:1
T:Title
%%score { ( 1 4 ) | ( 2 3 ) }
L:1/8
M:6/8
K:Ab
V:1 treble nm="Grand Piano"
V:4 treble 
V:2 bass 
V:3 bass 
V:1
 z3 z2[Q:1/4=78] [Ec] | B>FG [CA]2 [CA] | [DA]2 [DF] [CE]2 [Ec] | B2 E [EG][EA][EB] | %4
[M:7/8] [Ec]2 [EA] B3 c |[M:3/4] B>F G [CA]2 [CA]/[CA]/ | [DA]2 [DF] [CE]2 [Ec] | ce [Fd] c2 A/A/ | %8
[M:5/8] AB[DEG] [CEA]2 |[M:1/8] [Ec] |[M:3/4] B>B A G2 F | FE C [CE]2 [Ec] | B>B A G2 B | %13
 B[A,F] [=DG] E2 E | d>c B c2 c | e>d c d2 [Fd] | [Ed]>[Ec] [EB] [Ee]2 A |[M:5/8] AcB [CA]2 |] %18
V:2
 z3 z2 [A,,A,] | [E,G,D]>[E,B,D][E,D] [A,,E,]2 [A,,E,] | [D,F,]2 [D,A,] [A,,A,]2 [A,,A,] | %3
 [E,G,E]2 [E,G,] [D,B,][C,A,][B,,G,] |[M:7/8] [A,,A,]2 [C,A,] [E,G,E]3 [E,A,E] |[M:3/4] G,2 z2 z2 | %6
 [D,F,]2 [D,A,] [A,,A,]2 [A,,A,] | A,2 z2 z2 |[M:5/8] [E,E]2 z z2 |[M:1/8] [A,,A,] | %10
[M:3/4] [E,G,D]>[E,G,D] [E,A,C] [E,B,D]2 [E,G,D] | [A,,A,]2 [A,,E,A,] [A,,A,]2 [A,,A,] | %12
 [E,G,E]>[E,G,E] [E,CE] [E,B,E]2 [E,G,E] | .[B,,F,]2 [B,,B,] [E,G,]2 [E,G,] | %14
 [E,E]->[E,A,E] [E,G,E] [A,E]2[K:treble] [F,=A,F] | C2 z2 z2[K:bass] | %16
 [E,B,]>[E,A,] [D,G,] [C,A,]2 [F,A,C] |[M:5/8] C z z z2 |] %18
V:3
 x6 | x6 | x6 | x6 |[M:7/8] x7 |[M:3/4] [E,D]->[E,B,D] [E,D] [A,,E,]2 [A,,E,]/[A,,E,]/ | x6 | %7
 A,,C, [D,A,] [E,A,E]2 [E,CE]/[E,CE]/ |[M:5/8] CDE, A,,2 |[M:1/8] x |[M:3/4] x6 | x6 | x6 | x6 | %14
 B,2 z2 z2[K:treble] | [F,F]->[F,B,F] [F,=A,F] [B,F]2[K:bass] [B,,B,] | x6 | %17
[M:5/8] [E,A,]-[E,A,E][E,G,D] [A,,A,]2 |] %18
V:4
 x6 | x6 | x6 | x6 |[M:7/8] x7 |[M:3/4] x6 | x6 | E2 z2 z2 |[M:5/8] x5 |[M:1/8] x |[M:3/4] x6 | %11
 C2 z2 z2 | x6 | =D2 z2 z2 | x6 | x6 | x6 |[M:5/8] x5 |] %18

